X: 27652
T: Moran's Return
R: barndance
M: 4/4
K: Fmajor
d2 G2 G2 c>B|A2 F2 F2 f>g|agfe fdcA|G2 G>A B2 B>c|
d2 G2 G2 c>B|A2 F2 F2 f>g|agfe fdcA|G2 F2 F2||
F2 f>e f3 g|agfe d2 c>A|d2 g2 g3 a|bagf g2 f>g|
a2 ba g2 ag|fgfd c2 f>g|agfe fdcA|G2 F2 F2||
e2 A2 A2 d>c|B2 G2 G2 g>a|bagf gedB|A2 A>B c2 c>d|
e2 A2 A2 d>c|B2 G2 G2 g>a|bagf gedB|A2 G2 G2||
G2 g>f g3 a|bagf e2 d>B|e2 a2 a3 b|c'bag a2 g>a|
b2 c'b a2 ba|gage d2 g>a|bagf gedB|A2 G2 G2||
B2 E2 E2 A>G|F2 D2 D2 d>e|fedc dBAF|E2 E>F G2 G>A|
B2 E2 E2 A>G|F2 D2 D2 d>e|fedc dBAF|E2 D2 D2||
D2 d>c d3 e|fedc B2 A>F|B2 e2 e3 f|gfed e2 d>e|
f2 gf e2 fe|dedB A2 d>e|fedc dBAF|E2 D2 D2||

